X:78
T: Anyám, édesanyám...
K: F
M: 2/4
L: 1/4
f/ (e/4d//) f/2 (f g/) | f c | 
f/d/d/d/ | c B | 
B/c/d c | B F | 
B/G/G/G/ |A G | 

